dist/icons/social/instagram.svg

<svg viewBox="0 0 30 30" xmlns="http://www.w3.org/2000/svg">
<path d="M14.5158 8.106C10.965 8.106 8.10088 10.9751 8.10088 14.5322C8.10088 18.0892 10.965 20.9584 14.5158 20.9584C18.0666 20.9584 20.9307 18.0892 20.9307 14.5322C20.9307 10.9751 18.0666 8.106 14.5158 8.106ZM14.5158 18.71C12.2212 18.71 10.3453 16.8364 10.3453 14.5322C10.3453 12.2279 12.2156 10.3543 14.5158 10.3543C16.816 10.3543 18.6864 12.2279 18.6864 14.5322C18.6864 16.8364 16.8104 18.71 14.5158 18.71ZM22.6894 7.84313C22.6894 8.67647 22.0194 9.34202 21.1931 9.34202C20.3613 9.34202 19.6969 8.67088 19.6969 7.84313C19.6969 7.01539 20.3669 6.34425 21.1931 6.34425C22.0194 6.34425 22.6894 7.01539 22.6894 7.84313ZM26.9381 9.36439C26.8432 7.35656 26.3854 5.57803 24.917 4.1127C23.4543 2.64737 21.6789 2.18876 19.6746 2.08809C17.6088 1.97064 11.4172 1.97064 9.35149 2.08809C7.35275 2.18317 5.57734 2.64178 4.109 4.10711C2.64066 5.57244 2.18843 7.35096 2.08793 9.3588C1.97069 11.4282 1.97069 17.6306 2.08793 19.7C2.18285 21.7078 2.64066 23.4863 4.109 24.9517C5.57734 26.417 7.34717 26.8756 9.35149 26.9763C11.4172 27.0937 17.6088 27.0937 19.6746 26.9763C21.6789 26.8812 23.4543 26.4226 24.917 24.9517C26.3798 23.4863 26.8376 21.7078 26.9381 19.7C27.0554 17.6306 27.0554 11.4337 26.9381 9.36439ZM24.2694 21.9203C23.8339 23.0165 22.9909 23.8611 21.891 24.3029C20.244 24.9573 16.3359 24.8063 14.5158 24.8063C12.6957 24.8063 8.78201 24.9517 7.1406 24.3029C6.04632 23.8667 5.20328 23.0221 4.76222 21.9203C4.109 20.2705 4.25974 16.3555 4.25974 14.5322C4.25974 12.7089 4.11458 8.78833 4.76222 7.14403C5.19769 6.04783 6.04074 5.20331 7.1406 4.76147C8.7876 4.10711 12.6957 4.25811 14.5158 4.25811C16.3359 4.25811 20.2496 4.1127 21.891 4.76147C22.9853 5.19771 23.8283 6.04223 24.2694 7.14403C24.9226 8.79392 24.7767 12.7089 24.7767 14.5322C24.7767 16.3555 24.9226 20.276 24.2694 21.9203Z"/>
</svg>

<svg viewBox="0 0 30 30" xmlns="http://www.w3.org/2000/svg"><path d="M14.516 8.106A6.41 6.41 0 008.1 14.532a6.41 6.41 0 006.415 6.426 6.41 6.41 0 006.415-6.426 6.41 6.41 0 00-6.415-6.426zm0 10.604a4.178 4.178 0 010-8.356 4.178 4.178 0 010 8.356zm8.173-10.867c0 .833-.67 1.499-1.496 1.499a1.494 1.494 0 01-1.496-1.499c0-.828.67-1.499 1.496-1.499s1.496.671 1.496 1.5zm4.25 1.521c-.096-2.007-.554-3.786-2.022-5.251-1.463-1.466-3.238-1.924-5.242-2.025-2.066-.117-8.258-.117-10.324 0-1.998.095-3.774.554-5.242 2.02-1.468 1.464-1.92 3.243-2.021 5.25-.117 2.07-.117 8.273 0 10.342.095 2.008.553 3.786 2.021 5.252 1.468 1.465 3.238 1.924 5.242 2.024 2.066.118 8.258.118 10.324 0 2.004-.095 3.78-.553 5.242-2.024 1.463-1.466 1.92-3.244 2.021-5.252.117-2.07.117-8.266 0-10.336zm-2.67 12.556a4.226 4.226 0 01-2.378 2.383c-1.647.654-5.555.503-7.375.503-1.82 0-5.734.146-7.375-.503a4.226 4.226 0 01-2.379-2.383c-.653-1.65-.502-5.565-.502-7.388 0-1.823-.145-5.744.502-7.388a4.226 4.226 0 012.379-2.383c1.647-.654 5.555-.503 7.375-.503 1.82 0 5.734-.145 7.375.503a4.226 4.226 0 012.378 2.383c.654 1.65.508 5.565.508 7.388 0 1.823.146 5.744-.508 7.388z"/></svg>
